X: 1
T: Margaret MacLachlan
M: 6/8
L: 1/8
R: jig
K: Dmaj
Add dcd|ede fef|gfg Bcd|ecA A2B|
Add dcd|ede fef|Bgf edc|1 d3 dcB:|2 d3 dfg||
afa ded|faf def|gfg Bcd|ecA A2g|
afa ded|faf def|gfg edc|d3 dfg|
afa ded|faf def|gfg Bcd|efd cBA|
Add dcd|ede fef|Bgf edc|d3 d2B||
